build/category/DeveloperOutline.svg

<svg xmlns="http://www.w3.org/2000/svg" fill="none" viewBox="0 0 24 24" focusable="false"><path d="M0 0H24V24H0z"/><path fill="#74767B" fill-rule="evenodd" d="M7 4C5.34315 4 4 5.34315 4 7L4 17C4 18.6569 5.34315 20 7 20L17 20C18.6569 20 20 18.6569 20 17L20 7C20 5.34315 18.6569 4 17 4L7 4ZM17 5.3L7 5.3C6.06112 5.3 5.3 6.06112 5.3 7L5.3 17C5.3 17.9389 6.06112 18.7 7 18.7L17 18.7C17.9389 18.7 18.7 17.9389 18.7 17L18.7 7C18.7 6.06112 17.9389 5.3 17 5.3ZM13.2712 10.1209C13.3788 9.77842 13.1883 9.41358 12.8458 9.30603C12.5033 9.19849 12.1385 9.38895 12.0309 9.73144L10.7285 13.8791C10.6209 14.2216 10.8114 14.5864 11.1539 14.694C11.4964 14.8015 11.8612 14.6111 11.9688 14.2686L13.2712 10.1209ZM9.70023 10.3268C9.93039 10.0535 9.88539 9.65345 9.59973 9.43327C9.31406 9.21309 8.8959 9.25613 8.66575 9.52941L6.92078 11.6013C6.72479 11.834 6.72479 12.166 6.92078 12.3987L8.66575 14.4706C8.8959 14.7439 9.31406 14.7869 9.59973 14.5667C9.88539 14.3465 9.93039 13.9465 9.70023 13.6732L8.29103 12L9.70023 10.3268ZM14.2993 10.3268C14.0691 10.0535 14.1141 9.65345 14.3998 9.43327C14.6855 9.21309 15.1036 9.25613 15.3338 9.52941L17.0787 11.6013C17.2747 11.834 17.2747 12.166 17.0787 12.3987L15.3338 14.4706C15.1036 14.7439 14.6855 14.7869 14.3998 14.5667C14.1141 14.3465 14.0691 13.9465 14.2993 13.6732L15.7085 12L14.2993 10.3268Z"/></svg>

<svg xmlns="http://www.w3.org/2000/svg" fill="none" viewBox="0 0 24 24" focusable="false"><path fill="#74767B" fill-rule="evenodd" d="M7 4C5.34 4 4 5.34 4 7v10c0 1.65 1.34 3 3 3h10c1.65 0 3-1.35 3-3V7c0-1.66-1.35-3-3-3zm10 1.29H7c-.94 0-1.7.77-1.7 1.71v10c0 .93.76 1.7 1.7 1.7h10c.93 0 1.7-.77 1.7-1.7V7c0-.94-.77-1.71-1.7-1.71M12.84 9.3c.34.11.53.47.43.82l-1.31 4.14c-.1.35-.47.54-.81.43a.664.664 0 0 1-.43-.82l1.31-4.14c.1-.35.47-.54.81-.43M9.7 10.32c.23-.27.18-.67-.11-.89a.683.683 0 0 0-.93.09L6.92 11.6c-.2.23-.2.56 0 .79l1.74 2.08c.23.27.65.31.93.09.29-.22.34-.62.11-.89L8.29 12zm4.59 0a.62.62 0 0 1 .1-.89c.29-.22.71-.18.94.09l1.74 2.08c.2.23.2.56 0 .79l-1.74 2.08c-.23.27-.65.31-.94.09a.62.62 0 0 1-.1-.89L15.7 12z"/></svg>
